X: 157
T: Ma yi la
%%abc-version 2.0
%%abcx-abcm2ps-target-version 5.9.1 (29 Sep 2008)
%%abc-creator hum2abc beta
%%abcx-conversion-date 2013/10/02 07:44:27
%%abc-edited-by Helmut Schaffrath
%%humdrum-veritas 548195729
%%humdrum-veritas-data 43737918
%%continueall 1
%%barnumbers 0
L: 1/8
M: 3/4
K: E
B2e de2 [I:setbarnb 1]| 
d e f de2 | 
d2c2d f | 
e6- | 
e6 | 
B2e de2 | 
d e f de2 | 
d2c2d f | 
e6- | 
e6 | 
B2e de2 | 
d e f de2 | 
d2d c d e | 
d c B B B z | 
B2c2c B | 
B4G2 | 
A4B A | 
G2F2G F | 
G AB2c2 | 
B c B G A B | 
A2G F G A | 
B c B G A B | 
A2G F G A | 
B2c2B G | 
F4G F | 
E6 | 
e6- | 
e6 |]  



